X:1
T:The Wings of a Gull
M:4/4
L:1/8
K:C
 DE| F2 AA E2 GE|D-ED-C A,2 DE| FG A2- A2 E2| D6 DE| F2 A2 E2G-E| D2D-C A,2 DE|\
 F2 G2 A2 E2| D6 z A| A3 G c2 BB| A2F-E D2 z A| A3 G c2 B2| A4 z2 DE|\
 FG A2 E2 GE|D-ED-C A,2D-E| FG A4 E2| D6||

